static/fa/svgs/solid/shield-dog.svg

<svg xmlns="http://www.w3.org/2000/svg" viewBox="0 0 512 512"><!--! Font Awesome Free 6.1.1 by @fontawesome - https://fontawesome.com License - https://fontawesome.com/license/free (Icons: CC BY 4.0, Fonts: SIL OFL 1.1, Code: MIT License) Copyright 2022 Fonticons, Inc.--><path d="M288 208c0 8.8-7.2 16-16 16s-16.9-7.2-16.9-16 8.1-16 16.9-16c8.8 0 16 7.2 16 16zM256.3-.007c5.6-.044 11 1.393 15.8 4.073L476.5 90.53c11.2 4.74 18.7 14.57 19.4 27.57 5.7 95.5-29.2 303.8-223.4 389.6-4.9 2.8-11.4 4.4-16.2 4.3-5.8.1-11.4-1.5-17.2-4.3C45.8 421.9 10.95 213.6 16.57 118.1c.71-13 8.26-22.83 19.47-27.57L240.4 4.066a32.18 32.18 0 0 1 15.9-4.073zM160.9 286.2 143.1 320 272 384v-64h48c44.2 0 80-35.8 80-80v-32c0-8.8-7.2-16-16-16h-64l-7.2-14.3c-5.4-10.9-16.5-17.7-28.6-17.7h-45.1v64c0 35.3-27.8 64-64 64-4.3 0-9.4-.6-14.2-1.8zM143.1 176v48c0 17.7 15.2 32 32 32 18.6 0 32-14.3 32-32v-64h-48c-7.9 0-16 7.2-16 16z"/></svg>

<svg xmlns="http://www.w3.org/2000/svg" viewBox="0 0 512 512"><!--! Font Awesome Free 6.1.1 by @fontawesome - https://fontawesome.com License - https://fontawesome.com/license/free (Icons: CC BY 4.0, Fonts: SIL OFL 1.1, Code: MIT License) Copyright 2022 Fonticons, Inc. --><path d="M288 208C288 216.8 280.8 224 272 224C263.2 224 255.1 216.8 255.1 208C255.1 199.2 263.2 192 272 192C280.8 192 288 199.2 288 208zM256.3-.0068C261.9-.0507 267.3 1.386 272.1 4.066L476.5 90.53C487.7 95.27 495.2 105.1 495.9 118.1C501.6 213.6 466.7 421.9 272.5 507.7C267.6 510.5 261.1 512.1 256.3 512C250.5 512.1 244.9 510.5 239.1 507.7C45.8 421.9 10.95 213.6 16.57 118.1C17.28 105.1 24.83 95.27 36.04 90.53L240.4 4.066C245.2 1.386 250.7-.0507 256.3-.0068H256.3zM160.9 286.2L143.1 320L272 384V320H320C364.2 320 400 284.2 400 240V208C400 199.2 392.8 192 384 192H320L312.8 177.7C307.4 166.8 296.3 160 284.2 160H239.1V224C239.1 259.3 211.3 288 175.1 288C170.8 288 165.7 287.4 160.9 286.2H160.9zM143.1 176V224C143.1 241.7 158.3 256 175.1 256C193.7 256 207.1 241.7 207.1 224V160H159.1C151.2 160 143.1 167.2 143.1 176z"/></svg>
